build/assets/img/svg/icon-contecst.svg

<svg width="48" height="48" viewBox="0 0 48 48" fill="none" xmlns="http://www.w3.org/2000/svg">
<path d="M10 33.5372L14.5145 25.1533C15.9872 24.8753 16.3676 25.0822 16.8792 25.5832L13.0029 33.5372H10Z" fill="#C43B55"/>
<path d="M24.4033 24.0782C27.6709 20.1227 31.6408 21.2836 33.2172 22.3584L35.367 19.7788C32.5723 17.5574 25.9511 14.9633 21.8236 22.3584L24.4033 24.0782Z" fill="#C43B55"/>
<path fill-rule="evenodd" clip-rule="evenodd" d="M15.0985 12.6863C16.9799 11.9546 19.1355 11.9091 20.6054 12.0879C20.9713 12.1324 21.2271 12.4437 21.2271 12.7925V32.9032C21.2271 33.2969 20.9074 33.6161 20.5131 33.6161H18.8471C18.4528 33.6161 18.1331 33.2969 18.1331 32.9032V26.0121H17.5944L13.9839 33.222C13.863 33.4635 13.6158 33.6161 13.3454 33.6161H11.0399C10.4963 33.6161 10.1522 33.0337 10.4149 32.5586L14.3733 25.4017C13.1148 24.726 11.5064 23.0395 11.2011 20.0001L12.1482 19.9053C12.4604 23.0129 14.2651 24.4035 15.1979 24.7322L15.7278 24.919L11.4432 32.6656H13.1983L17.006 25.0616H19.0851V32.6656H20.2751V13.0075C18.9162 12.8713 17.0465 12.9487 15.444 13.572C13.7791 14.2195 12.4342 15.436 12.1805 17.631L11.2349 17.522C11.5388 14.8922 13.1931 13.4274 15.0985 12.6863ZM18.3016 13.6809C18.7205 13.6376 19.0851 13.9672 19.0851 14.3865V23.5586C19.0851 23.8947 18.8457 24.2019 18.4905 24.258C17.8201 24.3638 16.9204 24.389 16.0361 24.007C15.1357 23.6179 14.3117 22.8326 13.7632 21.4328L13.7563 21.4154L13.7509 21.3975C13.4016 20.2474 13.1974 18.4871 13.7513 16.9196C14.0313 16.1268 14.5077 15.3784 15.2592 14.795C16.0104 14.2119 17.0093 13.8148 18.3016 13.6809ZM18.1331 14.6588C17.1235 14.8005 16.3839 15.1259 15.8435 15.5454C15.2569 16.0008 14.8778 16.588 14.649 17.2358C14.1876 18.5417 14.3465 20.0716 14.6565 21.1038C15.1243 22.2868 15.7786 22.86 16.4142 23.1347C16.9917 23.3842 17.6019 23.4078 18.1331 23.3475V14.6588Z" fill="black"/>
<path fill-rule="evenodd" clip-rule="evenodd" d="M22.5668 22.423C22.468 22.3484 22.4426 22.2105 22.5115 22.1078C24.0068 19.8805 26.5501 18.4158 29.4355 18.4158C31.134 18.4158 32.8754 19.0358 34.2612 19.9611C34.375 20.0371 34.3968 20.1939 34.3111 20.3006L32.973 21.9672C32.893 22.0668 32.7488 22.0851 32.6431 22.0133C31.7288 21.3927 30.6242 21.0297 29.4355 21.0297C27.4196 21.0297 25.6483 22.0726 24.6322 23.6456C24.5548 23.7654 24.3915 23.7987 24.2775 23.7128L22.5668 22.423ZM22.1675 23.313C22.0461 23.2214 21.8708 23.2656 21.8136 23.4065C21.4055 24.4116 21.225 25.5333 21.225 26.7326C21.225 27.7945 21.3502 28.7884 21.6634 29.6922C21.716 29.844 21.9037 29.8918 22.0278 29.7897L23.8044 28.3281C23.8766 28.2687 23.9068 28.1727 23.8848 28.0819C23.7795 27.649 23.7238 27.197 23.7238 26.7326C23.7238 26.0994 23.8274 25.4896 24.0187 24.9196C24.052 24.8201 24.0201 24.7097 23.9363 24.6465L22.1675 23.313ZM22.3645 30.7442C22.2749 30.818 22.2513 30.9458 22.3116 31.0449C23.773 33.4465 26.4171 35.0494 29.4355 35.0494C31.3806 35.0494 33.1692 34.3842 34.5869 33.2686C34.7069 33.1741 34.7014 32.9928 34.5792 32.9013L32.7798 31.5533C32.6984 31.4924 32.5875 31.4902 32.5018 31.5448C31.6158 32.1087 30.5634 32.4356 29.4355 32.4356C27.1956 32.4356 25.2577 31.1481 24.3221 29.2761C24.2964 29.2248 24.2296 29.2099 24.1852 29.2464L22.3645 30.7442ZM35.3464 32.2877C35.4435 32.3605 35.5802 32.3488 35.6609 32.2582C36.438 31.386 37.0338 30.3498 37.3897 29.2086C37.4288 29.0833 37.5598 29.0094 37.6863 29.0448L38.1447 29.1729C38.2712 29.2083 38.3454 29.3396 38.3067 29.465C37.8254 31.0245 36.9435 32.4077 35.7816 33.4952C34.1222 35.0482 31.8896 35.9999 29.4355 35.9999C25.7961 35.9999 22.6469 33.9084 21.126 30.8656C20.4923 29.5977 20.2731 28.1864 20.2731 26.7326C20.2731 25.0717 20.5943 23.4825 21.3961 22.0986C23.0001 19.3299 25.9994 17.4653 29.4355 17.4653C31.7171 17.4653 34.0182 18.4481 35.6391 19.8058C35.7398 19.8901 35.7488 20.0405 35.6617 20.1388L35.6548 20.1466L33.2737 23.1124L33.1175 23.3069C33.0324 23.4129 32.876 23.4262 32.7741 23.3363L32.587 23.1711C31.7472 22.4297 30.6445 21.9802 29.4355 21.9802C27.6743 21.9802 26.1359 22.935 25.3122 24.3567C25.2313 24.4964 25.1574 24.6405 25.0908 24.7886C24.8243 25.3814 24.6758 26.0391 24.6758 26.7326C24.6758 27.2621 24.7623 27.7704 24.9217 28.2449C24.9919 28.454 25.0763 28.6566 25.1738 28.8517C25.9546 30.4138 27.5702 31.4851 29.4355 31.4851C30.5368 31.4851 31.5496 31.1122 32.3559 30.4856C32.4716 30.3957 32.583 30.3006 32.6898 30.2007C33.085 29.8308 33.4552 29.2899 33.7332 28.7211C33.8078 28.5686 33.6932 28.396 33.5232 28.396H29.9114H29.3165H29.1975C29.066 28.396 28.9595 28.2896 28.9595 28.1584V24.8316V24.594C28.9595 24.4628 29.066 24.3564 29.1975 24.3564H29.4355H38.0345H38.2257C38.3374 24.3564 38.4341 24.434 38.4582 24.5429L38.4993 24.7293C38.6418 25.3749 38.7168 26.0453 38.7168 26.7326C38.7168 26.7786 38.7165 26.8246 38.7158 26.8705C38.7139 27.0017 38.6029 27.1038 38.4716 27.0985L37.996 27.0796C37.8646 27.0744 37.7628 26.9638 37.7643 26.8326C37.7647 26.7993 37.7649 26.766 37.7649 26.7326C37.7649 26.3151 37.7341 25.905 37.6748 25.5045C37.6578 25.3901 37.5585 25.3069 37.4426 25.3069H30.1494C30.018 25.3069 29.9114 25.4133 29.9114 25.5445V27.2079C29.9114 27.3391 30.018 27.4455 30.1494 27.4455H34.5521H34.8667C35.0246 27.4455 35.1387 27.5961 35.0957 27.7478L35.0101 28.0501C34.7609 28.9298 34.2393 29.9242 33.5967 30.6334C33.4988 30.7414 33.5098 30.912 33.6265 30.9994L35.3464 32.2877Z" fill="black"/>
</svg>

<svg width="48" height="48" fill="none" xmlns="http://www.w3.org/2000/svg"><path d="M10 33.537l4.514-8.384c1.473-.278 1.854-.07 2.365.43l-3.876 7.954H10zm14.403-9.459c3.268-3.955 7.238-2.794 8.814-1.72l2.15-2.58c-2.795-2.22-9.416-4.815-13.543 2.58l2.58 1.72z" fill="#C43B55"/><path fill-rule="evenodd" clip-rule="evenodd" d="M15.098 12.686c1.882-.731 4.037-.777 5.507-.598a.708.708 0 01.622.705v20.11c0 .394-.32.713-.714.713h-1.666a.713.713 0 01-.714-.713v-6.89h-.539l-3.61 7.209a.714.714 0 01-.639.394H11.04a.713.713 0 01-.625-1.057l3.958-7.157c-1.258-.676-2.867-2.363-3.172-5.402l.947-.095c.312 3.108 2.117 4.498 3.05 4.827l.53.187-4.285 7.747h1.755l3.808-7.604h2.08v7.604h1.19V13.008c-1.36-.137-3.23-.06-4.832.564-1.665.648-3.01 1.864-3.264 4.059l-.945-.109c.304-2.63 1.958-4.095 3.864-4.836zm3.204.995a.71.71 0 01.783.706v9.172c0 .336-.24.643-.595.699-.67.106-1.57.131-2.454-.251-.9-.39-1.724-1.174-2.273-2.574l-.007-.018-.005-.017c-.35-1.15-.554-2.91 0-4.478.28-.793.757-1.542 1.508-2.125s1.75-.98 3.043-1.114zm-.169.978c-1.01.141-1.75.467-2.29.886a3.626 3.626 0 00-1.194 1.69c-.461 1.307-.302 2.837.008 3.869.467 1.183 1.122 1.756 1.757 2.03.578.25 1.188.274 1.72.213V14.66z" fill="#000"/><path fill-rule="evenodd" clip-rule="evenodd" d="M22.567 22.423a.233.233 0 01-.055-.315 8.325 8.325 0 016.924-3.692c1.698 0 3.44.62 4.825 1.545a.232.232 0 01.05.34l-1.338 1.666a.246.246 0 01-.33.046 5.693 5.693 0 00-3.207-.983 5.71 5.71 0 00-4.804 2.616.247.247 0 01-.355.067l-1.71-1.29zm-.4.89a.23.23 0 00-.353.094c-.409 1.005-.589 2.126-.589 3.326 0 1.061.125 2.055.438 2.96a.23.23 0 00.365.097l1.776-1.462a.244.244 0 00.08-.246 5.704 5.704 0 01.135-3.162.244.244 0 00-.083-.274l-1.768-1.333zm.197 7.431a.233.233 0 00-.052.3 8.327 8.327 0 007.123 4.005 8.3 8.3 0 005.152-1.78.231.231 0 00-.008-.368l-1.8-1.348a.245.245 0 00-.277-.008 5.693 5.693 0 01-3.067.89 5.712 5.712 0 01-5.113-3.159.09.09 0 00-.137-.03l-1.82 1.498zm12.982 1.544a.233.233 0 00.315-.03 8.301 8.301 0 001.729-3.05.242.242 0 01.296-.163l.459.128c.126.035.2.167.162.292a9.268 9.268 0 01-2.525 4.03A9.259 9.259 0 0129.436 36a9.283 9.283 0 01-8.31-5.134c-.634-1.268-.853-2.68-.853-4.133 0-1.661.321-3.25 1.123-4.634a9.28 9.28 0 018.04-4.634c2.281 0 4.582.983 6.203 2.34.1.085.11.236.023.334l-.007.008-2.381 2.965-.157.195a.238.238 0 01-.343.03l-.187-.166a4.744 4.744 0 00-3.152-1.19 4.759 4.759 0 00-4.344 2.808 4.728 4.728 0 00-.415 1.944 4.74 4.74 0 00.498 2.119 4.76 4.76 0 004.262 2.633 4.741 4.741 0 003.254-1.284c.395-.37.765-.911 1.043-1.48a.227.227 0 00-.21-.325h-4.325a.238.238 0 01-.239-.238v-3.564c0-.131.107-.238.239-.238h9.027c.112 0 .21.078.233.187l.041.186a9.286 9.286 0 01.217 2.142.233.233 0 01-.244.228l-.476-.02a.243.243 0 01-.232-.246 8.321 8.321 0 00-.09-1.328.233.233 0 00-.231-.198h-7.294a.238.238 0 00-.238.238v1.663c0 .131.107.238.238.238h4.718c.158 0 .272.15.229.302l-.086.302c-.25.88-.77 1.874-1.413 2.583a.249.249 0 00.03.366l1.72 1.289z" fill="#000"/></svg>
